X: 43215
T: With Her Tocher What A Lassie
R: reel
M: 4/4
K: Dmajor
~d2 fd adfd|~A2 ce gece|~d2 fd adfd|fage fddA|
~d2 fd adfd|~A2 ce gece|~d2 fd adfd|fage fddg|
aece Aece|aece fBBg|aece Aece|dfed cAAg|
aece Aece|aece fBBg|afge fdec|dgBg aA A2||

